X:81
T:Nicolas Adrien Gobin
M:C|
L:1/8
C:© Paul Gitlitz 1985
R:Reel
B:Giblitz Fancy, 141 Brand New Old Time Fiddle Tunes Vol. 2
H: Written for his birth.
K:D
"D"DF~F2 "G"GFEF|"D"DFAF BFAF|DF~F2 "G"GFEF|"A"A,B,DE "D"FDD2|!
"D"DF~F2 "G"GFEF|"D"DFAF BFAF|DEFD ({EF}"Em"E2)DB,|"A"A,B,DE "D"FDD2:|!
|"A"E3G "D"F2D2|"Bm"~B3c "D"dAFD|"A"E3G"D"F2D2|"G"(3ABc dc "D"d3F|!
"A"E^DEG({FG}"D"F2)=D2|"Bm"~B3c "G"dgfe|"D"fdgf "Em"ed(3Bcd|"A"eddc "D"d3e|!
"D"fd (3ddd fd (3ddd|"Bm"bdad "G"gdfd|"D"fdcd edcd|"Em"efed "A"cBAa|!
"D"fd (3ddd fd (3ddd|"Bm"bdad "G"gdfd|"D"fdgf "Em"ed (3Bcd|"A"eddc "D"d4||
